; G-Code generated by Simplify3D(R) Version 4.0.1
; Aug 20, 2018 at 7:09:04 AM
; Settings Summary
;   processName,PLA 
;   applyToModels,Displayhalter (v5~recovered)
;   profileName,Anycubic Kossel Plus (modified)
;   profileVersion,2018-05-12 19:28:24
;   baseProfile,
;   printMaterial,PLA
;   printQuality,High
;   printExtruders,
;   extruderName,Primary Extruder
;   extruderToolheadNumber,0
;   extruderDiameter,0.4
;   extruderAutoWidth,0
;   extruderWidth,0.4
;   extrusionMultiplier,1
;   extruderUseRetract,1
;   extruderRetractionDistance,6.5
;   extruderExtraRestartDistance,0
;   extruderRetractionZLift,0.4
;   extruderRetractionSpeed,1500
;   extruderUseCoasting,1
;   extruderCoastingDistance,0.6
;   extruderUseWipe,0
;   extruderWipeDistance,5
;   primaryExtruder,0
;   layerHeight,0.15
;   topSolidLayers,3
;   bottomSolidLayers,3
;   perimeterOutlines,2
;   printPerimetersInsideOut,0
;   startPointOption,2
;   startPointOriginX,0
;   startPointOriginY,0
;   sequentialIslands,0
;   spiralVaseMode,0
;   firstLayerHeightPercentage,80
;   firstLayerWidthPercentage,100
;   firstLayerUnderspeed,0.7
;   useRaft,0
;   raftExtruder,0
;   raftTopLayers,3
;   raftBaseLayers,2
;   raftOffset,3
;   raftSeparationDistance,0.14
;   raftTopInfill,100
;   aboveRaftSpeedMultiplier,0.3
;   useSkirt,1
;   skirtExtruder,0
;   skirtLayers,1
;   skirtOutlines,2
;   skirtOffset,2
;   usePrimePillar,0
;   primePillarExtruder,999
;   primePillarWidth,12
;   primePillarLocation,7
;   primePillarSpeedMultiplier,1
;   useOozeShield,0
;   oozeShieldExtruder,999
;   oozeShieldOffset,2
;   oozeShieldOutlines,1
;   oozeShieldSidewallShape,1
;   oozeShieldSidewallAngle,30
;   oozeShieldSpeedMultiplier,1
;   infillExtruder,0
;   internalInfillPattern,Rectilinear
;   externalInfillPattern,Rectilinear
;   infillPercentage,10
;   outlineOverlapPercentage,10
;   infillExtrusionWidthPercentage,105
;   minInfillLength,5
;   infillLayerInterval,1
;   internalInfillAngles,45,-45
;   overlapInternalInfillAngles,0
;   externalInfillAngles,45,-45
;   generateSupport,1
;   supportExtruder,0
;   supportInfillPercentage,30
;   supportExtraInflation,0
;   supportBaseLayers,0
;   denseSupportExtruder,0
;   denseSupportLayers,2
;   denseSupportInfillPercentage,70
;   supportLayerInterval,1
;   supportHorizontalPartOffset,0.3
;   supportUpperSeparationLayers,1
;   supportLowerSeparationLayers,1
;   supportType,0
;   supportGridSpacing,4
;   maxOverhangAngle,45
;   supportAngles,0
;   temperatureName,Primary Extruder,Heated Bed
;   temperatureNumber,0,1
;   temperatureSetpointCount,1,1
;   temperatureSetpointLayers,1,1
;   temperatureSetpointTemperatures,200,60
;   temperatureStabilizeAtStartup,1,1
;   temperatureHeatedBed,0,1
;   temperatureRelayBetweenLayers,0,0
;   temperatureRelayBetweenLoops,0,0
;   fanLayers,1,2
;   fanSpeeds,0,100
;   blipFanToFullPower,1
;   adjustSpeedForCooling,1
;   minSpeedLayerTime,15
;   minCoolingSpeedSlowdown,35
;   increaseFanForCooling,0
;   minFanLayerTime,60
;   maxCoolingFanSpeed,100
;   increaseFanForBridging,0
;   bridgingFanSpeed,100
;   use5D,1
;   relativeEdistances,0
;   allowEaxisZeroing,0
;   independentExtruderAxes,0
;   includeM10123,0
;   stickySupport,1
;   applyToolheadOffsets,0
;   gcodeXoffset,0
;   gcodeYoffset,0
;   gcodeZoffset,0
;   overrideMachineDefinition,1
;   machineTypeOverride,1
;   strokeXoverride,162.6
;   strokeYoverride,162.6
;   strokeZoverride,330
;   originOffsetXoverride,81.3
;   originOffsetYoverride,81.3
;   originOffsetZoverride,0
;   homeXdirOverride,0
;   homeYdirOverride,0
;   homeZdirOverride,1
;   flipXoverride,1
;   flipYoverride,-1
;   flipZoverride,1
;   toolheadOffsets,0,0|0,0|0,0|0,0|0,0|0,0
;   overrideFirmwareConfiguration,1
;   firmwareTypeOverride,RepRap (Marlin/Repetier/Sprinter)
;   GPXconfigOverride,r2
;   baudRateOverride,250000
;   overridePrinterModels,1
;   printerModelsOverride
;   startingGcode,G28,G0 Z50,G92 E0,G1 E10,G92 E0,
;   layerChangeGcode,
;   retractionGcode,
;   toolChangeGcode,
;   endingGcode,M104 S0,M140 S0,;Retract the filament,G92 E1,G1 E-1 F300,G28; home axes,M106 S0; Turn Partfan off,M84 ; disable motors
;   exportFileFormat,gcode
;   celebration,0
;   celebrationSong,Random Song
;   postProcessing,
;   defaultSpeed,3000
;   outlineUnderspeed,0.8
;   solidInfillUnderspeed,1
;   supportUnderspeed,0.6
;   rapidXYspeed,7200
;   rapidZspeed,9000
;   minBridgingArea,70
;   bridgingExtraInflation,0
;   bridgingExtrusionMultiplier,0.95
;   bridgingSpeedMultiplier,0.7
;   useFixedBridgingAngle,0
;   fixedBridgingAngle,0
;   applyBridgingToPerimeters,0
;   filamentDiameters,1.75|1.75|1.75|1.75|1.75|1.75
;   filamentPricesPerKg,20|46|46|46|46|46
;   filamentDensities,1.25|1.25|1.25|1.25|1.25|1.25
;   useMinPrintHeight,0
;   minPrintHeight,0
;   useMaxPrintHeight,0
;   maxPrintHeight,0
;   useDiaphragm,0
;   diaphragmLayerInterval,20
;   robustSlicing,1
;   mergeAllIntoSolid,0
;   onlyRetractWhenCrossingOutline,1
;   retractBetweenLayers,0
;   useRetractionMinTravel,0
;   retractionMinTravel,3
;   retractWhileWiping,0
;   onlyWipeOutlines,1
;   avoidCrossingOutline,0
;   maxMovementDetourFactor,3
;   toolChangeRetractionDistance,12
;   toolChangeExtraRestartDistance,-0.5
;   toolChangeRetractionSpeed,600
;   externalThinWallType,1
;   internalThinWallType,0
;   thinWallAllowedOverlapPercentage,35
;   singleExtrusionMinLength,1
;   singleExtrusionMinPrintingWidthPercentage,50
;   singleExtrusionMaxPrintingWidthPercentage,200
;   singleExtrusionEndpointExtension,0.2
;   horizontalSizeCompensation,0
G90
M82
M106 S255
G4 P500
M106 S0
M140 S60
M190 S60
M104 S200 T0
M109 S200 T0
G28
G0 Z50
G92 E0
G1 E10
G92 E0
G1 E-6.5000 F1500
G1 Z0.520 F9000
; process PLA 
; layer 1, Z = 0.120
T0
; tool H0.150 W0.400
; skirt
G1 X-6.919 Y13.853 F7200
G1 Z0.120 F9000
G1 E0.0000 F450
G1 X7.881 Y13.853 E0.3692 F2100
G1 X7.881 Y-22.995 E1.2884
G1 X7.972 Y-23.216 E1.2943
G1 X9.313 Y-24.556 E1.3416
G1 X9.533 Y-24.647 E1.3476
G1 X99.929 Y-24.647 E3.6025
G1 X100.149 Y-24.556 E3.6084
G1 X101.490 Y-23.216 E3.6557
G1 X101.581 Y-22.995 E3.6617
G1 X101.581 Y22.400 E4.7941
G1 X101.490 Y22.621 E4.8000
G1 X100.149 Y23.961 E4.8473
G1 X99.929 Y24.053 E4.8533
G1 X-98.967 Y24.053 E9.8147
G1 X-99.187 Y23.961 E9.8207
G1 X-100.528 Y22.621 E9.8680
G1 X-100.619 Y22.400 E9.8739
G1 X-100.619 Y-22.995 E11.0063
G1 X-100.528 Y-23.216 E11.0123
G1 X-99.187 Y-24.556 E11.0596
G1 X-98.967 Y-24.647 E11.0655
G1 X-8.571 Y-24.647 E13.3204
G1 X-8.351 Y-24.556 E13.3264
G1 X-7.010 Y-23.216 E13.3737
G1 X-6.919 Y-22.995 E13.3796
G1 X-6.919 Y13.253 E14.2838
G1 X-6.919 Y13.853 F2100
G1 X-7.319 Y14.253 F7200
G1 X8.281 Y14.253 E14.6730 F2100
G1 X8.281 Y-22.916 E15.6001
G1 X8.311 Y-22.989 E15.6021
G1 X9.539 Y-24.217 E15.6454
G1 X9.613 Y-24.247 E15.6474
G1 X99.849 Y-24.247 E17.8984
G1 X99.923 Y-24.217 E17.9004
G1 X101.150 Y-22.989 E17.9437
G1 X101.181 Y-22.916 E17.9457
G1 X101.181 Y22.321 E19.0741
G1 X101.150 Y22.394 E19.0761
G1 X99.923 Y23.622 E19.1194
G1 X99.849 Y23.653 E19.1214
G1 X-98.887 Y23.653 E24.0789
G1 X-98.961 Y23.622 E24.0809
G1 X-100.189 Y22.394 E24.1242
G1 X-100.219 Y22.321 E24.1262
G1 X-100.219 Y-22.916 E25.2546
G1 X-100.189 Y-22.989 E25.2566
G1 X-98.961 Y-24.217 E25.2999
G1 X-98.887 Y-24.247 E25.3019
G1 X-8.651 Y-24.247 E27.5528
G1 X-8.577 Y-24.217 E27.5548
G1 X-7.350 Y-22.989 E27.5981
G1 X-7.319 Y-22.916 E27.6001
G1 X-7.319 Y13.653 E28.5123
G1 X-7.319 Y14.253 F2100
G1 E22.0123 F1500
G1 Z0.520 F9000
; outer perimeter
G1 X-9.719 Y16.653 F7200
G1 Z0.120 F9000
G1 E28.5123 F1500
G1 X10.681 Y16.653 E29.0212 F1680
G1 X10.681 Y-21.847 E29.9816
G1 X98.781 Y-21.847 E32.1792
G1 X98.781 Y21.253 E33.2544
G1 X-97.819 Y21.253 E38.1586
G1 X-97.819 Y-21.847 E39.2337
G1 X-9.719 Y-21.847 E41.4314
G1 X-9.719 Y16.053 E42.3768
G1 X-9.719 Y16.653 F1680
; inner perimeter
G1 X-10.119 Y17.053 F7200
G1 X11.081 Y17.053 E42.9056 F1890
G1 X11.081 Y-21.447 E43.8660
G1 X98.381 Y-21.447 E46.0437
G1 X98.381 Y20.853 E47.0989
G1 X-97.419 Y20.853 E51.9832
G1 X-97.419 Y-21.447 E53.0383
G1 X-10.119 Y-21.447 E55.2160
G1 X-10.119 Y16.453 E56.1615
G1 X-10.119 Y17.053 F1890
; solid layer
G1 X-10.479 Y-20.874 F7200
G1 X-10.692 Y-21.087 E56.1690 F2100
G1 X-11.258 Y-21.087 E56.1831
G1 X-10.479 Y-20.308 E56.2106
G1 X-10.479 Y-19.743 E56.2247
G1 X-11.824 Y-21.087 E56.2721
G1 X-12.390 Y-21.087 E56.2862
G1 X-10.479 Y-19.177 E56.3536
G1 X-10.479 Y-18.611 E56.3677
G1 X-12.955 Y-21.087 E56.4551
G1 X-13.521 Y-21.087 E56.4692
G1 X-10.479 Y-18.046 E56.5765
G1 X-10.479 Y-17.480 E56.5906
G1 X-14.087 Y-21.087 E56.7179
G1 X-14.652 Y-21.087 E56.7320
G1 X-10.479 Y-16.914 E56.8792
G1 X-10.479 Y-16.348 E56.8933
G1 X-15.218 Y-21.087 E57.0605
G1 X-15.784 Y-21.087 E57.0746
G1 X-10.479 Y-15.783 E57.2617
G1 X-10.479 Y-15.217 E57.2759
G1 X-16.349 Y-21.087 E57.4829
G1 X-16.915 Y-21.087 E57.4971
G1 X-10.479 Y-14.651 E57.7241
G1 X-10.479 Y-14.086 E57.7382
G1 X-17.481 Y-21.087 E57.9852
G1 X-18.046 Y-21.087 E57.9993
G1 X-10.479 Y-13.520 E58.2663
G1 X-10.479 Y-12.954 E58.2804
G1 X-18.612 Y-21.087 E58.5673
G1 X-19.178 Y-21.087 E58.5814
G1 X-10.479 Y-12.389 E58.8883
G1 X-10.479 Y-11.823 E58.9024
G1 X-19.743 Y-21.087 E59.2292
G1 X-20.309 Y-21.087 E59.2433
G1 X-10.479 Y-11.257 E59.5901
G1 X-10.479 Y-10.692 E59.6042
G1 X-20.875 Y-21.087 E59.9709
G1 X-21.441 Y-21.087 E59.9851
G1 X-10.479 Y-10.126 E60.3718
G1 X-10.479 Y-9.560 E60.3859
G1 X-22.006 Y-21.087 E60.7925
G1 X-22.572 Y-21.087 E60.8066
G1 X-10.479 Y-8.995 E61.2332
G1 X-10.479 Y-8.429 E61.2473
G1 X-23.138 Y-21.087 E61.6939
G1 X-23.703 Y-21.087 E61.7080
G1 X-10.479 Y-7.863 E62.1745
G1 X-10.479 Y-7.298 E62.1886
G1 X-24.269 Y-21.087 E62.6751
G1 X-24.835 Y-21.087 E62.6892
G1 X-10.479 Y-6.732 E63.1956
G1 X-10.479 Y-6.166 E63.2098
G1 X-25.400 Y-21.087 E63.7361
G1 X-25.966 Y-21.087 E63.7503
G1 X-10.479 Y-5.600 E64.2966
G1 X-10.479 Y-5.035 E64.3107
G1 X-26.532 Y-21.087 E64.8770
G1 X-27.097 Y-21.087 E64.8911
G1 X-10.479 Y-4.469 E65.4774
G1 X-10.479 Y-3.903 E65.4915
G1 X-27.663 Y-21.087 E66.0977
G1 X-28.229 Y-21.087 E66.1118
G1 X-10.479 Y-3.338 E66.7380
G1 X-10.479 Y-2.772 E66.7521
G1 X-28.794 Y-21.087 E67.3982
G1 X-29.360 Y-21.087 E67.4123
G1 X-10.479 Y-2.206 E68.0784
G1 X-10.479 Y-1.641 E68.0925
G1 X-29.926 Y-21.087 E68.7785
G1 X-30.491 Y-21.087 E68.7926
G1 X-10.479 Y-1.075 E69.4986
G1 X-10.479 Y-0.509 E69.5127
G1 X-31.057 Y-21.087 E70.2387
G1 X-31.623 Y-21.087 E70.2528
G1 X-10.479 Y0.056 E70.9987
G1 X-10.479 Y0.622 E71.0128
G1 X-32.189 Y-21.087 E71.7787
G1 X-32.754 Y-21.087 E71.7928
G1 X-10.479 Y1.188 E72.5786
G1 X-10.479 Y1.753 E72.5927
G1 X-33.320 Y-21.087 E73.3985
G1 X-33.886 Y-21.087 E73.4126
G1 X-10.479 Y2.319 E74.2383
G1 X-10.479 Y2.885 E74.2524
G1 X-34.451 Y-21.087 E75.0981
G1 X-35.017 Y-21.087 E75.1122
G1 X-10.479 Y3.451 E75.9778
G1 X-10.479 Y4.016 E75.9920
G1 X-35.583 Y-21.087 E76.8775
G1 X-36.148 Y-21.087 E76.8917
G1 X-10.479 Y4.582 E77.7972
G1 X-10.479 Y5.148 E77.8113
G1 X-36.714 Y-21.087 E78.7368
G1 X-37.280 Y-21.087 E78.7509
G1 X-10.479 Y5.713 E79.6964
G1 X-10.479 Y6.279 E79.7105
G1 X-37.845 Y-21.087 E80.6759
G1 X-38.411 Y-21.087 E80.6900
G1 X-10.479 Y6.845 E81.6754
G1 X-10.479 Y7.410 E81.6895
G1 X-38.977 Y-21.087 E82.6949
G1 X-39.542 Y-21.087 E82.7090
G1 X-10.479 Y7.976 E83.7343
G1 X-10.479 Y8.542 E83.7484
G1 X-40.108 Y-21.087 E84.7936
G1 X-40.674 Y-21.087 E84.8077
G1 X-10.479 Y9.107 E85.8729
G1 X-10.479 Y9.673 E85.8870
G1 X-41.240 Y-21.087 E86.9722
G1 X-41.805 Y-21.087 E86.9863
G1 X-10.479 Y10.239 E88.0914
G1 X-10.479 Y10.804 E88.1055
G1 X-42.371 Y-21.087 E89.2306
G1 X-42.937 Y-21.087 E89.2447
G1 X-10.479 Y11.370 E90.3897
G1 X-10.479 Y11.936 E90.4038
G1 X-43.502 Y-21.087 E91.5688
G1 X-44.068 Y-21.087 E91.5829
G1 X-10.479 Y12.501 E92.7678
G1 X-10.479 Y13.067 E92.7820
G1 X-44.634 Y-21.087 E93.9868
G1 X-45.199 Y-21.087 E94.0010
G1 X-10.479 Y13.633 E95.2258
G1 X-10.479 Y14.199 E95.2399
G1 X-45.765 Y-21.087 E96.4847
G1 X-46.331 Y-21.087 E96.4988
G1 X-10.479 Y14.764 E97.7636
G1 X-10.479 Y15.330 E97.7777
G1 X-46.896 Y-21.087 E99.0624
G1 X-47.462 Y-21.087 E99.0765
G1 X-10.479 Y15.896 E100.3812
G1 X-10.479 Y16.461 E100.3953
G1 X-48.028 Y-21.087 E101.7199
G1 X-48.593 Y-21.087 E101.7341
G1 X-10.479 Y17.027 E103.0786
G1 X-10.479 Y17.413 E103.0883
G1 X-10.093 Y17.413 E103.0979
G1 X-7.013 Y20.493 E103.2065
G1 X-6.448 Y20.493 E103.2206
G1 X-9.528 Y17.413 E103.3293
G1 X-8.962 Y17.413 E103.3434
G1 X-5.882 Y20.493 E103.4521
G1 X-5.316 Y20.493 E103.4662
G1 X-8.396 Y17.413 E103.5748
G1 X-7.831 Y17.413 E103.5889
G1 X-4.751 Y20.493 E103.6976
G1 X-4.185 Y20.493 E103.7117
G1 X-7.265 Y17.413 E103.8204
G1 X-6.699 Y17.413 E103.8345
G1 X-3.619 Y20.493 E103.9431
G1 X-3.054 Y20.493 E103.9572
G1 X-6.134 Y17.413 E104.0659
G1 X-5.568 Y17.413 E104.0800
G1 X-2.488 Y20.493 E104.1887
G1 X-1.922 Y20.493 E104.2028
G1 X-5.002 Y17.413 E104.3114
G1 X-4.437 Y17.413 E104.3255
G1 X-1.357 Y20.493 E104.4342
G1 X-0.791 Y20.493 E104.4483
G1 X-3.871 Y17.413 E104.5570
G1 X-3.305 Y17.413 E104.5711
G1 X-0.225 Y20.493 E104.6797
G1 X0.340 Y20.493 E104.6938
G1 X-2.740 Y17.413 E104.8025
G1 X-2.174 Y17.413 E104.8166
G1 X0.906 Y20.493 E104.9253
G1 X1.472 Y20.493 E104.9394
G1 X-1.608 Y17.413 E105.0480
G1 X-1.042 Y17.413 E105.0621
G1 X2.038 Y20.493 E105.1708
G1 X2.603 Y20.493 E105.1849
G1 X-0.477 Y17.413 E105.2936
G1 X0.089 Y17.413 E105.3077
G1 X3.169 Y20.493 E105.4163
G1 X3.735 Y20.493 E105.4304
G1 X0.655 Y17.413 E105.5391
G1 X1.220 Y17.413 E105.5532
G1 X4.300 Y20.493 E105.6619
G1 X4.866 Y20.493 E105.6760
G1 X1.786 Y17.413 E105.7846
G1 X2.352 Y17.413 E105.7987
G1 X5.432 Y20.493 E105.9074
G1 X5.997 Y20.493 E105.9215
G1 X2.917 Y17.413 E106.0302
G1 X3.483 Y17.413 E106.0443
G1 X6.563 Y20.493 E106.1529
G1 X7.129 Y20.493 E106.1670
G1 X4.049 Y17.413 E106.2757
G1 X4.614 Y17.413 E106.2898
G1 X7.694 Y20.493 E106.3985
G1 X8.260 Y20.493 E106.4126
G1 X5.180 Y17.413 E106.5212
G1 X5.746 Y17.413 E106.5353
G1 X8.826 Y20.493 E106.6440
G1 X9.391 Y20.493 E106.6581
G1 X6.311 Y17.413 E106.7668
G1 X6.877 Y17.413 E106.7809
G1 X9.957 Y20.493 E106.8895
G1 X10.523 Y20.493 E106.9036
G1 X7.443 Y17.413 E107.0123
G1 X8.009 Y17.413 E107.0264
G1 X11.089 Y20.493 E107.1351
G1 X11.654 Y20.493 E107.1492
G1 X8.574 Y17.413 E107.2578
G1 X9.140 Y17.413 E107.2719
G1 X12.220 Y20.493 E107.3806
G1 X12.786 Y20.493 E107.3947
G1 X9.706 Y17.413 E107.5034
G1 X10.271 Y17.413 E107.5175
G1 X13.351 Y20.493 E107.6261
G1 X13.917 Y20.493 E107.6402
G1 X10.837 Y17.413 E107.7489
G1 X11.403 Y17.413 E107.7630
G1 X14.483 Y20.493 E107.8717
G1 X15.048 Y20.493 E107.8858
G1 X11.441 Y16.885 E108.0130
G1 X11.441 Y16.320 E108.0271
G1 X15.614 Y20.493 E108.1744
G1 X16.180 Y20.493 E108.1885
G1 X11.441 Y15.754 E108.3556
G1 X11.441 Y15.188 E108.3698
G1 X16.745 Y20.493 E108.5569
G1 X17.311 Y20.493 E108.5710
G1 X11.441 Y14.622 E108.7781
G1 X11.441 Y14.057 E108.7922
G1 X17.877 Y20.493 E109.0192
G1 X18.442 Y20.493 E109.0334
G1 X11.441 Y13.491 E109.2804
G1 X11.441 Y12.925 E109.2945
G1 X19.008 Y20.493 E109.5614
G1 X19.574 Y20.493 E109.5755
G1 X11.441 Y12.360 E109.8624
G1 X11.441 Y11.794 E109.8766
G1 X20.139 Y20.493 E110.1834
G1 X20.705 Y20.493 E110.1975
G1 X11.441 Y11.228 E110.5244
G1 X11.441 Y10.663 E110.5385
G1 X21.271 Y20.493 E110.8852
G1 X21.837 Y20.493 E110.8994
G1 X11.441 Y10.097 E111.2661
G1 X11.441 Y9.531 E111.2802
G1 X22.402 Y20.493 E111.6669
G1 X22.968 Y20.493 E111.6810
G1 X11.441 Y8.966 E112.0877
G1 X11.441 Y8.400 E112.1018
G1 X23.534 Y20.493 E112.5284
G1 X24.099 Y20.493 E112.5425
G1 X11.441 Y7.834 E112.9890
G1 X11.441 Y7.269 E113.0032
G1 X24.665 Y20.493 E113.4697
